X:5890
T:Scottish  Kerbeuf
O:england
N:please mail errors to: simon.wascher@chello.at
M:2/4
L:1/16
K:Gm
G2B2 d2B2|ABAGA4|ABcB AG^FG|A2B2 A2G2|
G2B2 d2B2|ABAGA4|ABcB AG^FG|A2^F2G4:|
K:G
|:D2G2 B2G2|FGFED4|FGAB AGFG|ABcA B2G2|
D2G2 B2G2|FGFED4|FGAB AGFG|A2F2G4:|
